X: 20564
M: 2/4
L: 1/16
K: Edor
|:\
E2BB BcdB | AGFE D2EF | G2FE BAGF | E4 E2e2 |\
E2B2 BcdB | AGFE D2EF | G2E2 BAGF | E3E E4 :|
|:\
dcde d2B2 | AGFE D2EF | G2E2 BAGF | E3F E4 :|


